Newaita-dark/actions/32/draw-watercolor.svg

<?xml version="1.0" encoding="UTF-8"?>
<svg xmlns="http://www.w3.org/2000/svg" xmlns:xlink="http://www.w3.org/1999/xlink" width="32pt" height="32pt" viewBox="0 0 32 32" version="1.1">
<g id="surface1">
<path style=" stroke:none;fill-rule:nonzero;fill:rgb(25.882354%,64.705884%,96.078432%);fill-opacity:1;" d="M 23.152344 26.050781 C 23.152344 28.695312 24.628906 29.355469 26.460938 29.355469 C 28.292969 29.355469 29.769531 28.695312 29.769531 26.050781 C 29.769531 22.742188 28.445312 20.09375 26.460938 16.789062 C 24.476562 20.09375 23.152344 22.742188 23.152344 26.050781 Z M 23.152344 26.050781 "/>
<path style=" stroke:none;fill-rule:nonzero;fill:rgb(25.882354%,64.705884%,96.078432%);fill-opacity:1;" d="M 1.324219 28.695312 C 7.871094 26.824219 1.789062 20.742188 9.273438 17.9375 L 13.953125 22.613281 C 12.082031 31.96875 4.128906 29.632812 1.324219 28.695312 Z M 1.324219 28.695312 "/>
<path style=" stroke:none;fill-rule:nonzero;fill:rgb(74.117649%,74.117649%,74.117649%);fill-opacity:1;" d="M 26.582031 3.4375 C 25.804688 2.660156 24.554688 2.660156 23.777344 3.4375 L 13.484375 13.726562 L 10.210938 17 L 14.886719 21.679688 L 15.355469 21.210938 L 16.292969 20.277344 L 17.695312 18.871094 L 18.164062 18.40625 L 28.453125 8.113281 C 29.230469 7.335938 29.230469 6.085938 28.453125 5.308594 Z M 26.113281 5.773438 C 26.632812 6.292969 26.632812 7.128906 26.113281 7.644531 L 16.757812 17 L 16.292969 17.46875 L 14.886719 18.871094 L 13.015625 17 L 14.421875 15.597656 L 14.886719 15.128906 L 24.242188 5.773438 C 24.761719 5.257812 25.597656 5.257812 26.113281 5.773438 Z M 26.113281 5.773438 "/>
</g>
</svg>

<svg xmlns="http://www.w3.org/2000/svg" width="32pt" height="32pt" viewBox="0 0 32 32"><path d="M23.152 26.05c0 2.645 1.477 3.305 3.309 3.305s3.309-.66 3.309-3.304c0-3.309-1.325-5.957-3.31-9.262-1.983 3.305-3.308 5.953-3.308 9.262zm0 0M1.324 28.695c6.547-1.87.465-7.953 7.95-10.758l4.68 4.676c-1.872 9.356-9.825 7.02-12.63 6.082zm0 0" fill="#42a5f5"/><path d="M26.582 3.438a1.978 1.978 0 0 0-2.805 0L13.484 13.726 10.211 17l4.676 4.68.468-.47.938-.933 1.402-1.406.47-.465L28.452 8.113a1.978 1.978 0 0 0 0-2.804zm-.469 2.335c.52.52.52 1.356 0 1.872L16.758 17l-.465.469-1.406 1.402L13.016 17l1.406-1.402.465-.47 9.355-9.355a1.325 1.325 0 0 1 1.871 0zm0 0" fill="#bdbdbd"/></svg>
